icons/round/action/ic_drag_indicator_24px.svg

<svg xmlns="http://www.w3.org/2000/svg" height="24" viewBox="0 0 24 24" width="24"><path d="M0 0h24v24H0V0z" fill="none"/><path d="M11 18c0 1.1-.9 2-2 2s-2-.9-2-2 .9-2 2-2 2 .9 2 2zm-2-8c-1.1 0-2 .9-2 2s.9 2 2 2 2-.9 2-2-.9-2-2-2zm0-6c-1.1 0-2 .9-2 2s.9 2 2 2 2-.9 2-2-.9-2-2-2zm6 4c1.1 0 2-.9 2-2s-.9-2-2-2-2 .9-2 2 .9 2 2 2zm0 2c-1.1 0-2 .9-2 2s.9 2 2 2 2-.9 2-2-.9-2-2-2zm0 6c-1.1 0-2 .9-2 2s.9 2 2 2 2-.9 2-2-.9-2-2-2z"/></svg>

<svg xmlns="http://www.w3.org/2000/svg" enable-background="new 0 0 24 24" height="24" viewBox="0 0 24 24" width="24"><g><path d="M0,0h24v24H0V0z" fill="none"/></g><g><path d="M11,18c0,1.1-0.9,2-2,2s-2-0.9-2-2s0.9-2,2-2S11,16.9,11,18z M9,10c-1.1,0-2,0.9-2,2s0.9,2,2,2s2-0.9,2-2S10.1,10,9,10z M9,4C7.9,4,7,4.9,7,6s0.9,2,2,2s2-0.9,2-2S10.1,4,9,4z M15,8c1.1,0,2-0.9,2-2s-0.9-2-2-2s-2,0.9-2,2S13.9,8,15,8z M15,10 c-1.1,0-2,0.9-2,2s0.9,2,2,2s2-0.9,2-2S16.1,10,15,10z M15,16c-1.1,0-2,0.9-2,2s0.9,2,2,2s2-0.9,2-2S16.1,16,15,16z"/></g></svg>
